X: 1
T: the Snow Lay on the Ground (strathspey)
R: strathspey
M: C
L: 1/16
K: G
D2 \
| "G"B3A G3F G4 D4 | "C"c4 "G"B4 "D7"A4- A3A \
| "D7"G3F EF3 D4 c4 | "G"B4 "D7"A4 "G"G4- G2 :|
|: B2 \
| "G"d3c B3A B4 d4 | "Am"c4 "E7"B4 "Am"c4- c3c \
| "Am"c3B AG3 "D7"A4 c4 | "G"B4 "D7"A4 "G"G4- G2 :|
